third_party/noto/noto_2/emoji_u1f54d.svg

<svg enable-background="new 0 0 128 128" version="1.1" viewBox="0 0 128 128" xmlns="http://www.w3.org/2000/svg"><path d="m13.63 58.55c-1.64 0.09-2.24 0.89-2.27 5.58-0.02 2.76 0.26 56.44 0.18 57.65-0.11 1.65 1.13 2.16 2.85 2.15 0.27 0 99.57-0.18 99.78-0.17 1.21 0.01 1.3-0.95 1.38-2.59 0.09-1.64 0.96-60.95 0.96-61.9s0-1.73-1.73-1.81c-0.46-0.02-2.29 0.05-4.84-0.03-3.29-0.11-5.35-3.05-9.09-3.16-4.35-0.14-10.18 2.56-10.18 2.56l-21.36-26.81s-0.01-6.39-0.15-8.64c-0.17-2.76-2.16-4.49-5.18-4.41-3.28 0.09-5.2 1.9-5.27 4.58-0.09 3.11-0.17 8.21-0.17 8.21l-22.12 28.26-8.72 3.27s-5.37-2.7-9.87-2.73c-2.1-0.03-3.83-0.03-4.2-0.01z" fill="#875B52"/><path d="m16.25 28.04 10.74 4.84 9.73-4.95s-2.19-2.65-2.14-2.99c0.06-0.34 3.25-1.73 3.2-6.91-0.06-6.43-8.51-14.21-10.98-14.21s-11.23 7.52-11.23 13.88c0 4.89 2.97 7.21 2.97 7.72 0 0.5-2.29 2.62-2.29 2.62z" fill="#875B52"/><path d="m90.64 27.93s2.58-2.65 2.58-3.06c0-1.01-3.55-2.03-3.25-7.97 0.29-5.8 8.67-13.44 11.13-13.39 2.57 0.05 10.98 8.41 10.83 13.9s-3.08 7.13-3.03 7.75 2.41 2.57 2.41 2.57-12.67 6.52-12.72 6.36-7.95-6.16-7.95-6.16z" fill="#875B52"/><path d="m35.8 67.91s27.12-34.68 28.03-34.68 27.51 32.47 27.51 32.47l0.52 27.24-56.32-1.98 0.26-23.05z" fill="#E4C5B0"/><path d="m16.42 123.94-0.18-95.89 20.46-0.11s0.29 60.38 0.68 60.64c0.4 0.26 52.37 0.4 52.76 0 0.4-0.4 0.48-60.65 0.48-60.65l20.68-0.21-0.57 96.07-94.31 0.15z" fill="#B79277"/><polygon points="20.12 62.87 33.47 62.87 33.47 94.88 19.87 94.88" fill="#E4C5B0"/><rect x="94.53" y="60.52" width="13.1" height="32.76" fill="#E4C5B0"/><polygon points="90.65 30.99 111.32 30.97 111.14 56.92 90.55 56.69" fill="#E4C5B0"/><polygon points="16.26 30.96 36.72 30.93 36.9 57.43 16.31 57.58" fill="#E4C5B0"/><path d="m24.53 51.6v-14.99h4.9v14.89c-0.01 0-4.8 0.2-4.9 0.1z" fill="#69769C"/><polygon points="24.55 71.07 29.46 70.94 29.46 86.14 24.48 86.14" fill="#69769C"/><polygon points="98.91 35.38 103.89 35.38 103.89 50.7 98.85 50.7" fill="#69769C"/><path d="m98.78 68.74h4.72v15.13h-4.98c0.01 0.01 0.46-15.13 0.26-15.13z" fill="#69769C"/><path d="m38.03 123.89s0.03-20.01 0.11-22.6c0.07-2.24 1.26-6.99 7.41-6.99 6.01 0 7.06 4.41 7.06 7.2 0 2.24 0.03 22.42 0.03 22.42l-14.61-0.03z" fill="#865C50"/><path d="m57.41 123.83s-0.22-19.6-0.13-22.33c0.14-3.92 2.18-7.46 7.15-7.59 5.31-0.14 7.54 3.54 7.68 7.1s0.19 22.82 0.19 22.82-14.89-0.03-14.89 0z" fill="#865C50"/><path d="m76.77 123.83s-0.07-20.21-0.07-22.51c0-2.8 2.1-7.27 6.99-7.27 5.31 0 7.34 4.06 7.34 7.34s0.04 22.44 0.04 22.44h-14.3z" fill="#865C50"/><path d="m63.44 50.34c-9.04 0.15-17.31 6.61-17.4 18-0.08 10.18 7.82 17.4 18 17.55 11.32 0.17 17.93-7.98 18-18.08 0.09-9.65-6.9-17.67-18.6-17.47z" fill="#504644"/><path d="m65.39 84.69c-0.31 0.56-1.26 0.63-1.59 0.08l-14.51-23.42c-0.65-1.21-0.13-2.69 0.35-2.68l27.85 0.13c0.5 0 1.5 0.77 0.56 2.95l-12.66 22.94zm-11.37-23.33 10.49 17.33 9.59-17.23-20.08-0.1z" fill="#FF8C02"/><path d="m49.14 76.07 14.8-23.23 14.78 23.07c0.19 0.32 0.38 1.6-0.69 1.64l-28 0.21c-1.14-0.19-1.06-1.39-0.89-1.69zm14.81-19.31-10.01 17.08 20.29-0.06-10.28-17.02z" fill="#FF8C02"/><path d="m64.09 83.26-14.74-23.8c-0.25-0.4 0.04-0.92 0.51-0.91l27.75 0.17c0.5 0 0.81 0.54 0.57 0.97l-13.05 23.54c-0.22 0.41-0.8 0.42-1.04 0.03zm-11.7-22.69 12.15 19.62 10.8-19.47-22.95-0.15z" fill="#FFD324"/><path d="m49.19 75.91 14.27-24.2c0.18-0.3 0.62-0.3 0.8 0l14.33 24.02c0.18 0.31-0.04 0.7-0.39 0.7l-28.6 0.18c-0.37 0-0.59-0.39-0.41-0.7zm14.28-20.28-10.77 18.26c-0.18 0.31 0.04 0.7 0.4 0.7l21.58-0.13c0.36 0 0.58-0.39 0.39-0.7l-10.81-18.13c-0.18-0.3-0.61-0.3-0.79 0z" fill="#FFD324"/></svg>

<?xml version="1.0" encoding="utf-8"?>
<!-- Generator: Adobe Illustrator 25.2.3, SVG Export Plug-In . SVG Version: 6.00 Build 0)  -->
<svg version="1.1" id="Layer_2" xmlns="http://www.w3.org/2000/svg" xmlns:xlink="http://www.w3.org/1999/xlink" x="0px" y="0px"
	 viewBox="0 0 128 128" style="enable-background:new 0 0 128 128;" xml:space="preserve">
<path style="fill:#875B52;" d="M13.63,58.55c-1.64,0.09-2.24,0.89-2.27,5.58c-0.02,2.76,0.26,56.44,0.18,57.65
	c-0.11,1.65,1.13,2.16,2.85,2.15c0.27,0,99.57-0.18,99.78-0.17c1.21,0.01,1.3-0.95,1.38-2.59c0.09-1.64,0.96-60.95,0.96-61.9
	c0-0.95,0-1.73-1.73-1.81c-0.46-0.02-2.29,0.05-4.84-0.03c-3.29-0.11-5.35-3.05-9.09-3.16c-4.35-0.14-10.18,2.56-10.18,2.56
	L69.31,30.02c0,0-0.01-6.39-0.15-8.64c-0.17-2.76-2.16-4.49-5.18-4.41c-3.28,0.09-5.2,1.9-5.27,4.58c-0.09,3.11-0.17,8.21-0.17,8.21
	L36.42,58.02l-8.72,3.27c0,0-5.37-2.7-9.87-2.73C15.73,58.53,14,58.53,13.63,58.55z"/>
<path style="fill:#875B52;" d="M16.25,28.04l10.74,4.84l9.73-4.95c0,0-2.19-2.65-2.14-2.99c0.06-0.34,3.25-1.73,3.2-6.91
	C37.72,11.6,29.27,3.82,26.8,3.82S15.57,11.34,15.57,17.7c0,4.89,2.97,7.21,2.97,7.72C18.54,25.92,16.25,28.04,16.25,28.04z"/>
<path style="fill:#875B52;" d="M90.64,27.93c0,0,2.58-2.65,2.58-3.06c0-1.01-3.55-2.03-3.25-7.97c0.29-5.8,8.67-13.44,11.13-13.39
	c2.57,0.05,10.98,8.41,10.83,13.9c-0.15,5.49-3.08,7.13-3.03,7.75c0.05,0.62,2.41,2.57,2.41,2.57s-12.67,6.52-12.72,6.36
	C98.54,33.93,90.64,27.93,90.64,27.93z"/>
<path style="fill:#E4C5B0;" d="M35.8,67.91c0,0,27.12-34.68,28.03-34.68c0.91,0,27.51,32.47,27.51,32.47l0.52,27.24l-56.32-1.98
	L35.8,67.91z"/>
<path style="fill:#B79277;" d="M16.42,123.94l-0.18-95.89l20.46-0.11c0,0,0.29,60.38,0.68,60.64c0.4,0.26,52.37,0.4,52.76,0
	c0.4-0.4,0.48-60.65,0.48-60.65l20.68-0.21l-0.57,96.07L16.42,123.94z"/>
<polygon style="fill:#E4C5B0;" points="20.12,62.87 33.47,62.87 33.47,94.88 19.87,94.88 "/>
<rect x="94.53" y="60.52" style="fill:#E4C5B0;" width="13.1" height="32.76"/>
<polygon style="fill:#E4C5B0;" points="90.65,30.99 111.32,30.97 111.14,56.92 90.55,56.69 "/>
<polygon style="fill:#E4C5B0;" points="16.26,30.96 36.72,30.93 36.9,57.43 16.31,57.58 "/>
<path style="fill:#69769C;" d="M24.53,51.6V36.61h4.9V51.5C29.42,51.5,24.63,51.7,24.53,51.6z"/>
<polygon style="fill:#69769C;" points="24.55,71.07 29.46,70.94 29.46,86.14 24.48,86.14 "/>
<polygon style="fill:#69769C;" points="98.91,35.38 103.89,35.38 103.89,50.7 98.85,50.7 "/>
<path style="fill:#69769C;" d="M98.78,68.74h4.72v15.13h-4.98C98.53,83.88,98.98,68.74,98.78,68.74z"/>
<path style="fill:#865C50;" d="M38.03,123.89c0,0,0.03-20.01,0.11-22.6c0.07-2.24,1.26-6.99,7.41-6.99c6.01,0,7.06,4.41,7.06,7.2
	c0,2.24,0.03,22.42,0.03,22.42L38.03,123.89z"/>
<path style="fill:#865C50;" d="M57.41,123.83c0,0-0.22-19.6-0.13-22.33c0.14-3.92,2.18-7.46,7.15-7.59c5.31-0.14,7.54,3.54,7.68,7.1
	s0.19,22.82,0.19,22.82S57.41,123.8,57.41,123.83z"/>
<path style="fill:#865C50;" d="M76.77,123.83c0,0-0.07-20.21-0.07-22.51c0-2.8,2.1-7.27,6.99-7.27c5.31,0,7.34,4.06,7.34,7.34
	s0.04,22.44,0.04,22.44H76.77z"/>
<path style="fill:#504644;" d="M63.44,50.34c-9.04,0.15-17.31,6.61-17.4,18c-0.08,10.18,7.82,17.4,18,17.55
	c11.32,0.17,17.93-7.98,18-18.08C82.13,58.16,75.14,50.14,63.44,50.34z"/>
<g>
	<path style="fill:#FF8C02;" d="M65.39,84.69c-0.31,0.56-1.26,0.63-1.59,0.08L49.29,61.35c-0.65-1.21-0.13-2.69,0.35-2.68
		l27.85,0.13c0.5,0,1.5,0.77,0.56,2.95L65.39,84.69z M54.02,61.36l10.49,17.33l9.59-17.23L54.02,61.36z"/>
</g>
<g>
	<path style="fill:#FF8C02;" d="M49.14,76.07l14.8-23.23l14.78,23.07c0.19,0.32,0.38,1.6-0.69,1.64l-28,0.21
		C48.89,77.57,48.97,76.37,49.14,76.07z M63.95,56.76L53.94,73.84l20.29-0.06L63.95,56.76z"/>
</g>
<g>
	<path style="fill:#FFD324;" d="M64.09,83.26L49.35,59.46c-0.25-0.4,0.04-0.92,0.51-0.91l27.75,0.17c0.5,0,0.81,0.54,0.57,0.97
		L65.13,83.23C64.91,83.64,64.33,83.65,64.09,83.26z M52.39,60.57l12.15,19.62l10.8-19.47L52.39,60.57z"/>
</g>
<g>
	<path style="fill:#FFD324;" d="M49.19,75.91l14.27-24.2c0.18-0.3,0.62-0.3,0.8,0l14.33,24.02c0.18,0.31-0.04,0.7-0.39,0.7
		l-28.6,0.18C49.23,76.61,49.01,76.22,49.19,75.91z M63.47,55.63L52.7,73.89c-0.18,0.31,0.04,0.7,0.4,0.7l21.58-0.13
		c0.36,0,0.58-0.39,0.39-0.7L64.26,55.63C64.08,55.33,63.65,55.33,63.47,55.63z"/>
</g>
</svg>
